Newaita-dark/apps/24/preferences-system-privacy.svg

<svg height="24" viewBox="0 0 24 24" width="24" xmlns="http://www.w3.org/2000/svg" xmlns:xlink="http://www.w3.org/1999/xlink"><linearGradient id="a"><stop offset="0" stop-opacity=".313726"/><stop offset=".222222" stop-opacity=".27451"/><stop offset="1" stop-opacity="0"/></linearGradient><radialGradient id="b" cx="450.908936" cy="189.579361" gradientTransform="matrix(.00000013 -.0585994 -.105479 -.00000008 33.392364 47.696497)" gradientUnits="userSpaceOnUse" r="21.166656" xlink:href="#a"/><radialGradient id="c" cx="450.908936" cy="189.579361" gradientTransform="matrix(-.00000013 .0585994 .105479 .00000008 -9.577589 -5.645612)" gradientUnits="userSpaceOnUse" r="21.166656" xlink:href="#a"/><radialGradient id="d" cx="450.908936" cy="189.579361" gradientTransform="matrix(-.00000013 -.0585994 .105479 -.00000008 -9.577589 47.696497)" gradientUnits="userSpaceOnUse" r="21.166656" xlink:href="#a"/><radialGradient id="e" cx="450.908936" cy="189.579361" gradientTransform="matrix(.00000013 .0585994 -.105479 .00000008 33.392362 -5.645612)" gradientUnits="userSpaceOnUse" r="21.166656" xlink:href="#a"/><linearGradient id="f" gradientTransform="matrix(.01002 0 0 .0468795 9.34904 10.079088)" gradientUnits="userSpaceOnUse" x1="255.323059" x2="255.323044" y1="233.5" y2="254.666656"><stop offset="0" stop-opacity=".27451"/><stop offset="1" stop-opacity="0"/></linearGradient><linearGradient id="g" gradientUnits="userSpaceOnUse" x1="254" x2="254" y1="-168.666672" y2="233.5"><stop offset="0" stop-color="#616161"/><stop offset="1" stop-color="#424242"/></linearGradient><linearGradient id="h" gradientUnits="userSpaceOnUse" x1="11.90736" x2="11.90736075661" y1="21.02540914717" y2="2.17208857661"><stop offset="0" stop-color="#ab47bc"/><stop offset="1" stop-color="#ba68c8"/></linearGradient><path d="m13.644531 21.027344h1.984375v-.996094h-1.984375zm0 0" fill="url(#b)"/><path d="m10.171875 21.027344h-1.984375v.992187h1.984375zm0 0" fill="url(#c)"/><path d="m10.171875 21.027344h-1.984375v-.996094h1.984375zm0 0" fill="url(#d)"/><path d="m13.644531 21.027344h1.984375v.992187h-1.984375zm0 0" fill="url(#e)"/><path d="m10.171875 20.777344h3.472656v1.242187h-3.472656zm0 0" fill="url(#f)"/><path d="m253.975747-168.671091c111.072726 0 201.147458 89.991406 201.147458 201.064133 0 111.072726-90.074732 201.147458-201.147458 201.147458-110.989402 0-201.064133-90.074732-201.064133-201.147458 0-111.072727 90.074731-201.064133 201.064133-201.064133zm0 0" fill="url(#g)" stroke="#333" stroke-linecap="round" stroke-width="3" transform="matrix(.0468795 0 0 .0468795 0 10.079087)"/><path d="m11.90625 20.964844c-5.222656 0-9.425781-4.207032-9.425781-9.429688 0-.027344 0-.058594 0-.089844.050781 5.179688 4.234375 9.332032 9.425781 9.332032s9.378906-4.152344 9.425781-9.332032c0 .03125.003907.0625.003907.089844 0 5.222656-4.207032 9.429688-9.429688 9.429688zm0 0" fill-opacity=".196078"/><path d="m11.90625 2.234375c-5.222656 0-9.425781 4.203125-9.425781 9.425781v.09375c.050781-5.179687 4.234375-9.335937 9.425781-9.335937s9.378906 4.15625 9.425781 9.335937c0-.03125.003907-.0625.003907-.09375 0-5.222656-4.207032-9.425781-9.429688-9.425781zm0 0" fill="#fff" fill-opacity=".392157"/><path d="m11.90625 2.101562c-5.257812 0-9.496094 4.238282-9.496094 9.496094 0 5.261719 4.238282 9.5 9.496094 9.5 5.261719 0 9.5-4.238281 9.5-9.5 0-5.257812-4.238281-9.496094-9.5-9.496094zm0 .140626c5.1875 0 9.359375 4.171874 9.359375 9.355468 0 5.1875-4.171875 9.359375-9.359375 9.359375-5.183594 0-9.355469-4.171875-9.355469-9.359375 0-5.183594 4.171875-9.355468 9.355469-9.355468zm0 0" fill="#212121"/><path d="m5.953125 8.621094c-.550781 0-.992187.445312-.992187.992187v1.984375.03125c.019531 1.632813 1.5625 2.945313 3.472656 2.945313 1.242187 0 2.976562-.585938 2.976562-1.984375 0-.273438.222656-.496094.496094-.496094.277344 0 .496094.222656.496094.496094 0 1.398437 1.738281 1.984375 2.976562 1.984375 1.914063 0 3.457032-1.3125 3.472656-2.945313 0-.011718 0-.019531 0-.03125v-1.984375c0-.546875-.441406-.992187-.992187-.992187h-2.480469c-1.03125 0-1.957031.382812-2.589844.992187h-1.761718c-.636719-.609375-1.558594-.992187-2.59375-.992187zm2.480469 1.488281c1.101562 0 1.984375.664063 1.984375 1.488281 0 .824219-.882813 1.488282-1.984375 1.488282-1.097656 0-1.984375-.664063-1.984375-1.488282 0-.824218.886719-1.488281 1.984375-1.488281zm6.945312 0c1.101563 0 1.984375.664063 1.984375 1.488281 0 .824219-.882812 1.488282-1.984375 1.488282-1.097656 0-1.984375-.664063-1.984375-1.488282 0-.824218.886719-1.488281 1.984375-1.488281zm0 0" fill="url(#h)"/><path d="m5.953125 8.621094c-.550781 0-.992187.445312-.992187.992187v.371094c0-.546875.441406-.992187.992187-.992187h2.480469c1.035156 0 1.957031.382812 2.59375.992187h1.761718c.632813-.609375 1.558594-.992187 2.589844-.992187h2.480469c.550781 0 .992187.445312.992187.992187v-.371094c0-.546875-.441406-.992187-.992187-.992187h-2.480469c-1.03125 0-1.957031.382812-2.589844.992187h-1.761718c-.636719-.609375-1.558594-.992187-2.59375-.992187zm.511719 3.164062c-.011719.0625-.015625.121094-.015625.1875 0 .824219.886719 1.488282 1.984375 1.488282 1.101562 0 1.984375-.664063 1.984375-1.488282 0-.066406-.003907-.125-.015625-.1875-.121094.734375-.953125 1.300782-1.96875 1.300782s-1.847656-.566407-1.96875-1.300782zm6.945312 0c-.007812.0625-.015625.121094-.015625.1875 0 .824219.886719 1.488282 1.984375 1.488282 1.101563 0 1.984375-.664063 1.984375-1.488282 0-.066406-.003906-.125-.011719-.1875-.125.734375-.957031 1.300782-1.972656 1.300782s-1.847656-.566407-1.96875-1.300782zm0 0" fill="#fff" fill-opacity=".392157"/><path d="m8.433594 10.109375c-1.097656 0-1.984375.664063-1.984375 1.488281 0 .085938.011719.167969.027343.25.15625-.707031.972657-1.242187 1.957032-1.242187.988281 0 1.800781.535156 1.957031 1.242187.019531-.082031.027344-.164062.027344-.25 0-.824218-.882813-1.488281-1.984375-1.488281zm6.945312 0c-1.097656 0-1.984375.664063-1.984375 1.488281 0 .085938.011719.167969.027344.25.15625-.707031.972656-1.242187 1.957031-1.242187.988282 0 1.800782.535156 1.957032 1.242187.019531-.082031.027343-.164062.027343-.25 0-.824218-.882812-1.488281-1.984375-1.488281zm-10.417968 1.488281v.496094.03125c.019531 1.632812 1.558593 2.945312 3.472656 2.945312 1.242187 0 2.976562-.585937 2.976562-1.984374 0-.273438.222656-.496094.496094-.496094.277344 0 .496094.222656.496094.496094 0 1.398437 1.738281 1.984374 2.976562 1.984374 1.914063 0 3.457032-1.3125 3.472656-2.945312 0-.011719 0-.019531 0-.03125v-.496094.03125c-.015624 1.632813-1.558593 2.945313-3.472656 2.945313-1.238281 0-2.976562-.585938-2.976562-1.984375 0-.273438-.21875-.496094-.496094-.496094-.273438 0-.496094.222656-.496094.496094 0 1.398437-1.734375 1.984375-2.976562 1.984375-1.914063 0-3.453125-1.3125-3.472656-2.945313 0-.011718 0-.019531 0-.03125zm0 0" fill-opacity=".235294"/><path d="m126.987873-31.100895c-11.748878 0-21.164645 9.499093-21.164645 21.164646v42.329291.666603c.416627 34.830007 33.33015 62.827333 74.076259 62.827333 26.49747 0 63.493937-12.498806 63.493937-42.329291 0-5.832776 4.749546-10.582322 10.582323-10.582322 5.916101 0 10.582322 4.749546 10.582322 10.582322 0 29.830485 37.079793 42.329291 63.493937 42.329291 40.829434 0 73.742958-27.997326 74.076259-62.827333 0-.249976 0-.416627 0-.666603v-42.329291c0-11.665553-9.415767-21.164646-21.164645-21.164646h-52.911614c-21.997899 0-41.746014 8.165887-55.244724 21.164646h-37.579745c-13.582036-12.998759-33.246825-21.164646-55.32805-21.164646zm52.911614 31.746968c23.497756 0 42.329291 14.165314 42.329291 31.746969 0 17.581654-18.831535 31.746968-42.329291 31.746968-23.414431 0-42.329291-14.165314-42.329291-31.746968 0-17.581655 18.91486-31.746969 42.329291-31.746969zm148.152519 0c23.497756 0 42.329291 14.165314 42.329291 31.746969 0 17.581654-18.831535 31.746968-42.329291 31.746968-23.414431 0-42.329291-14.165314-42.329291-31.746968 0-17.581655 18.91486-31.746969 42.329291-31.746969zm0 0" fill="none" stroke="#212121" stroke-linecap="round" stroke-linejoin="round" stroke-width="3" transform="matrix(.0468795 0 0 .0468795 0 10.079087)"/></svg>

<?xml version="1.0" encoding="UTF-8"?>
<svg xmlns="http://www.w3.org/2000/svg" xmlns:xlink="http://www.w3.org/1999/xlink" width="24px" height="24px" viewBox="0 0 24 24" version="1.1">
<defs>
<radialGradient id="radial0" gradientUnits="userSpaceOnUse" cx="450.908936" cy="189.579361" fx="450.908936" fy="189.579361" r="21.166656" gradientTransform="matrix(0.000000130628,-0.0585994,-0.105479,-0.0000000761539,33.392364,47.696497)">
<stop offset="0" style="stop-color:rgb(0%,0%,0%);stop-opacity:0.313726;"/>
<stop offset="0.222222" style="stop-color:rgb(0%,0%,0%);stop-opacity:0.27451;"/>
<stop offset="1" style="stop-color:rgb(0%,0%,0%);stop-opacity:0;"/>
</radialGradient>
<radialGradient id="radial1" gradientUnits="userSpaceOnUse" cx="450.908936" cy="189.579361" fx="450.908936" fy="189.579361" r="21.166656" gradientTransform="matrix(-0.000000130628,0.0585994,0.105479,0.0000000761539,-9.577589,-5.645612)">
<stop offset="0" style="stop-color:rgb(0%,0%,0%);stop-opacity:0.313726;"/>
<stop offset="0.222222" style="stop-color:rgb(0%,0%,0%);stop-opacity:0.27451;"/>
<stop offset="1" style="stop-color:rgb(0%,0%,0%);stop-opacity:0;"/>
</radialGradient>
<radialGradient id="radial2" gradientUnits="userSpaceOnUse" cx="450.908936" cy="189.579361" fx="450.908936" fy="189.579361" r="21.166656" gradientTransform="matrix(-0.000000130628,-0.0585994,0.105479,-0.0000000761539,-9.577589,47.696497)">
<stop offset="0" style="stop-color:rgb(0%,0%,0%);stop-opacity:0.313726;"/>
<stop offset="0.222222" style="stop-color:rgb(0%,0%,0%);stop-opacity:0.27451;"/>
<stop offset="1" style="stop-color:rgb(0%,0%,0%);stop-opacity:0;"/>
</radialGradient>
<radialGradient id="radial3" gradientUnits="userSpaceOnUse" cx="450.908936" cy="189.579361" fx="450.908936" fy="189.579361" r="21.166656" gradientTransform="matrix(0.000000130628,0.0585994,-0.105479,0.0000000761539,33.392362,-5.645612)">
<stop offset="0" style="stop-color:rgb(0%,0%,0%);stop-opacity:0.313726;"/>
<stop offset="0.222222" style="stop-color:rgb(0%,0%,0%);stop-opacity:0.27451;"/>
<stop offset="1" style="stop-color:rgb(0%,0%,0%);stop-opacity:0;"/>
</radialGradient>
<linearGradient id="linear0" gradientUnits="userSpaceOnUse" x1="255.323059" y1="233.5" x2="255.323044" y2="254.666656" gradientTransform="matrix(0.01002,0,0,0.0468795,9.34904,10.079088)">
<stop offset="0" style="stop-color:rgb(0%,0%,0%);stop-opacity:0.27451;"/>
<stop offset="1" style="stop-color:rgb(0%,0%,0%);stop-opacity:0;"/>
</linearGradient>
<linearGradient id="linear1" gradientUnits="userSpaceOnUse" x1="254" y1="-168.666672" x2="254" y2="233.5" gradientTransform="matrix(1,0,0,1,0,0)">
<stop offset="0" style="stop-color:rgb(38.039216%,38.039216%,38.039216%);stop-opacity:1;"/>
<stop offset="1" style="stop-color:rgb(25.882354%,25.882354%,25.882354%);stop-opacity:1;"/>
</linearGradient>
<linearGradient id="linear2" gradientUnits="userSpaceOnUse" x1="960" y1="1695.118164" x2="960.000061" y2="175.118118" gradientTransform="matrix(0.0124035,0,0,0.0124035,0.0000000171891,0.0000114452)">
<stop offset="0" style="stop-color:rgb(67.058825%,27.843139%,73.725492%);stop-opacity:1;"/>
<stop offset="1" style="stop-color:rgb(72.941178%,40.784314%,78.431374%);stop-opacity:1;"/>
</linearGradient>
</defs>
<g id="surface1">
<path style=" stroke:none;fill-rule:nonzero;fill:url(#radial0);" d="M 13.644531 21.027344 L 15.628906 21.027344 L 15.628906 20.03125 L 13.644531 20.03125 Z M 13.644531 21.027344 "/>
<path style=" stroke:none;fill-rule:nonzero;fill:url(#radial1);" d="M 10.171875 21.027344 L 8.1875 21.027344 L 8.1875 22.019531 L 10.171875 22.019531 Z M 10.171875 21.027344 "/>
<path style=" stroke:none;fill-rule:nonzero;fill:url(#radial2);" d="M 10.171875 21.027344 L 8.1875 21.027344 L 8.1875 20.03125 L 10.171875 20.03125 Z M 10.171875 21.027344 "/>
<path style=" stroke:none;fill-rule:nonzero;fill:url(#radial3);" d="M 13.644531 21.027344 L 15.628906 21.027344 L 15.628906 22.019531 L 13.644531 22.019531 Z M 13.644531 21.027344 "/>
<path style=" stroke:none;fill-rule:nonzero;fill:url(#linear0);" d="M 10.171875 20.777344 L 13.644531 20.777344 L 13.644531 22.019531 L 10.171875 22.019531 Z M 10.171875 20.777344 "/>
<path style="fill-rule:nonzero;fill:url(#linear1);stroke-width:3;stroke-linecap:round;stroke-linejoin:miter;stroke:rgb(20%,20%,20%);stroke-opacity:1;stroke-miterlimit:4;" d="M 253.975747 -168.671091 C 365.048473 -168.671091 455.123205 -78.679685 455.123205 32.393042 C 455.123205 143.465768 365.048473 233.5405 253.975747 233.5405 C 142.986345 233.5405 52.911614 143.465768 52.911614 32.393042 C 52.911614 -78.679685 142.986345 -168.671091 253.975747 -168.671091 Z M 253.975747 -168.671091 " transform="matrix(0.0468795,0,0,0.0468795,0,10.079087)"/>
<path style=" stroke:none;fill-rule:nonzero;fill:rgb(0%,0%,0%);fill-opacity:0.196078;" d="M 11.90625 20.964844 C 6.683594 20.964844 2.480469 16.757812 2.480469 11.535156 C 2.480469 11.507812 2.480469 11.476562 2.480469 11.445312 C 2.53125 16.625 6.714844 20.777344 11.90625 20.777344 C 17.097656 20.777344 21.285156 16.625 21.332031 11.445312 C 21.332031 11.476562 21.335938 11.507812 21.335938 11.535156 C 21.335938 16.757812 17.128906 20.964844 11.90625 20.964844 Z M 11.90625 20.964844 "/>
<path style=" stroke:none;fill-rule:nonzero;fill:rgb(100%,100%,100%);fill-opacity:0.392157;" d="M 11.90625 2.234375 C 6.683594 2.234375 2.480469 6.4375 2.480469 11.660156 C 2.480469 11.691406 2.480469 11.722656 2.480469 11.753906 C 2.53125 6.574219 6.714844 2.417969 11.90625 2.417969 C 17.097656 2.417969 21.285156 6.574219 21.332031 11.753906 C 21.332031 11.722656 21.335938 11.691406 21.335938 11.660156 C 21.335938 6.4375 17.128906 2.234375 11.90625 2.234375 Z M 11.90625 2.234375 "/>
<path style=" stroke:none;fill-rule:nonzero;fill:rgb(12.941177%,12.941177%,12.941177%);fill-opacity:1;" d="M 11.90625 2.101562 C 6.648438 2.101562 2.410156 6.339844 2.410156 11.597656 C 2.410156 16.859375 6.648438 21.097656 11.90625 21.097656 C 17.167969 21.097656 21.40625 16.859375 21.40625 11.597656 C 21.40625 6.339844 17.167969 2.101562 11.90625 2.101562 Z M 11.90625 2.242188 C 17.09375 2.242188 21.265625 6.414062 21.265625 11.597656 C 21.265625 16.785156 17.09375 20.957031 11.90625 20.957031 C 6.722656 20.957031 2.550781 16.785156 2.550781 11.597656 C 2.550781 6.414062 6.722656 2.242188 11.90625 2.242188 Z M 11.90625 2.242188 "/>
<path style=" stroke:none;fill-rule:nonzero;fill:url(#linear2);" d="M 5.953125 8.621094 C 5.402344 8.621094 4.960938 9.066406 4.960938 9.613281 L 4.960938 11.597656 C 4.960938 11.609375 4.960938 11.617188 4.960938 11.628906 C 4.980469 13.261719 6.523438 14.574219 8.433594 14.574219 C 9.675781 14.574219 11.410156 13.988281 11.410156 12.589844 C 11.410156 12.316406 11.632812 12.09375 11.90625 12.09375 C 12.183594 12.09375 12.402344 12.316406 12.402344 12.589844 C 12.402344 13.988281 14.140625 14.574219 15.378906 14.574219 C 17.292969 14.574219 18.835938 13.261719 18.851562 11.628906 C 18.851562 11.617188 18.851562 11.609375 18.851562 11.597656 L 18.851562 9.613281 C 18.851562 9.066406 18.410156 8.621094 17.859375 8.621094 L 15.378906 8.621094 C 14.347656 8.621094 13.421875 9.003906 12.789062 9.613281 L 11.027344 9.613281 C 10.390625 9.003906 9.46875 8.621094 8.433594 8.621094 Z M 8.433594 10.109375 C 9.535156 10.109375 10.417969 10.773438 10.417969 11.597656 C 10.417969 12.421875 9.535156 13.085938 8.433594 13.085938 C 7.335938 13.085938 6.449219 12.421875 6.449219 11.597656 C 6.449219 10.773438 7.335938 10.109375 8.433594 10.109375 Z M 15.378906 10.109375 C 16.480469 10.109375 17.363281 10.773438 17.363281 11.597656 C 17.363281 12.421875 16.480469 13.085938 15.378906 13.085938 C 14.28125 13.085938 13.394531 12.421875 13.394531 11.597656 C 13.394531 10.773438 14.28125 10.109375 15.378906 10.109375 Z M 15.378906 10.109375 "/>
<path style=" stroke:none;fill-rule:nonzero;fill:rgb(100%,100%,100%);fill-opacity:0.392157;" d="M 5.953125 8.621094 C 5.402344 8.621094 4.960938 9.066406 4.960938 9.613281 L 4.960938 9.984375 C 4.960938 9.4375 5.402344 8.992188 5.953125 8.992188 L 8.433594 8.992188 C 9.46875 8.992188 10.390625 9.375 11.027344 9.984375 L 12.789062 9.984375 C 13.421875 9.375 14.347656 8.992188 15.378906 8.992188 L 17.859375 8.992188 C 18.410156 8.992188 18.851562 9.4375 18.851562 9.984375 L 18.851562 9.613281 C 18.851562 9.066406 18.410156 8.621094 17.859375 8.621094 L 15.378906 8.621094 C 14.347656 8.621094 13.421875 9.003906 12.789062 9.613281 L 11.027344 9.613281 C 10.390625 9.003906 9.46875 8.621094 8.433594 8.621094 Z M 6.464844 11.785156 C 6.453125 11.847656 6.449219 11.90625 6.449219 11.972656 C 6.449219 12.796875 7.335938 13.460938 8.433594 13.460938 C 9.535156 13.460938 10.417969 12.796875 10.417969 11.972656 C 10.417969 11.90625 10.414062 11.847656 10.402344 11.785156 C 10.28125 12.519531 9.449219 13.085938 8.433594 13.085938 C 7.417969 13.085938 6.585938 12.519531 6.464844 11.785156 Z M 13.410156 11.785156 C 13.402344 11.847656 13.394531 11.90625 13.394531 11.972656 C 13.394531 12.796875 14.28125 13.460938 15.378906 13.460938 C 16.480469 13.460938 17.363281 12.796875 17.363281 11.972656 C 17.363281 11.90625 17.359375 11.847656 17.351562 11.785156 C 17.226562 12.519531 16.394531 13.085938 15.378906 13.085938 C 14.363281 13.085938 13.53125 12.519531 13.410156 11.785156 Z M 13.410156 11.785156 "/>
<path style=" stroke:none;fill-rule:nonzero;fill:rgb(0%,0%,0%);fill-opacity:0.235294;" d="M 8.433594 10.109375 C 7.335938 10.109375 6.449219 10.773438 6.449219 11.597656 C 6.449219 11.683594 6.460938 11.765625 6.476562 11.847656 C 6.632812 11.140625 7.449219 10.605469 8.433594 10.605469 C 9.421875 10.605469 10.234375 11.140625 10.390625 11.847656 C 10.410156 11.765625 10.417969 11.683594 10.417969 11.597656 C 10.417969 10.773438 9.535156 10.109375 8.433594 10.109375 Z M 15.378906 10.109375 C 14.28125 10.109375 13.394531 10.773438 13.394531 11.597656 C 13.394531 11.683594 13.40625 11.765625 13.421875 11.847656 C 13.578125 11.140625 14.394531 10.605469 15.378906 10.605469 C 16.367188 10.605469 17.179688 11.140625 17.335938 11.847656 C 17.355469 11.765625 17.363281 11.683594 17.363281 11.597656 C 17.363281 10.773438 16.480469 10.109375 15.378906 10.109375 Z M 4.960938 11.597656 L 4.960938 12.09375 C 4.960938 12.105469 4.960938 12.113281 4.960938 12.125 C 4.980469 13.757812 6.519531 15.070312 8.433594 15.070312 C 9.675781 15.070312 11.410156 14.484375 11.410156 13.085938 C 11.410156 12.8125 11.632812 12.589844 11.90625 12.589844 C 12.183594 12.589844 12.402344 12.8125 12.402344 13.085938 C 12.402344 14.484375 14.140625 15.070312 15.378906 15.070312 C 17.292969 15.070312 18.835938 13.757812 18.851562 12.125 C 18.851562 12.113281 18.851562 12.105469 18.851562 12.09375 L 18.851562 11.597656 C 18.851562 11.609375 18.851562 11.617188 18.851562 11.628906 C 18.835938 13.261719 17.292969 14.574219 15.378906 14.574219 C 14.140625 14.574219 12.402344 13.988281 12.402344 12.589844 C 12.402344 12.316406 12.183594 12.09375 11.90625 12.09375 C 11.632812 12.09375 11.410156 12.316406 11.410156 12.589844 C 11.410156 13.988281 9.675781 14.574219 8.433594 14.574219 C 6.519531 14.574219 4.980469 13.261719 4.960938 11.628906 C 4.960938 11.617188 4.960938 11.609375 4.960938 11.597656 Z M 4.960938 11.597656 "/>
<path style="fill:none;stroke-width:3;stroke-linecap:round;stroke-linejoin:round;stroke:rgb(12.941177%,12.941177%,12.941177%);stroke-opacity:1;stroke-miterlimit:4;" d="M 126.987873 -31.100895 C 115.238995 -31.100895 105.823228 -21.601802 105.823228 -9.936249 L 105.823228 32.393042 C 105.823228 32.643018 105.823228 32.809669 105.823228 33.059645 C 106.239855 67.889652 139.153378 95.886978 179.899487 95.886978 C 206.396957 95.886978 243.393424 83.388172 243.393424 53.557687 C 243.393424 47.724911 248.14297 42.975365 253.975747 42.975365 C 259.891848 42.975365 264.558069 47.724911 264.558069 53.557687 C 264.558069 83.388172 301.637862 95.886978 328.052006 95.886978 C 368.88144 95.886978 401.794964 67.889652 402.128265 33.059645 C 402.128265 32.809669 402.128265 32.643018 402.128265 32.393042 L 402.128265 -9.936249 C 402.128265 -21.601802 392.712498 -31.100895 380.96362 -31.100895 L 328.052006 -31.100895 C 306.054107 -31.100895 286.305992 -22.935008 272.807282 -9.936249 L 235.227537 -9.936249 C 221.645501 -22.935008 201.980712 -31.100895 179.899487 -31.100895 Z M 179.899487 0.646073 C 203.397243 0.646073 222.228778 14.811387 222.228778 32.393042 C 222.228778 49.974696 203.397243 64.14001 179.899487 64.14001 C 156.485056 64.14001 137.570196 49.974696 137.570196 32.393042 C 137.570196 14.811387 156.485056 0.646073 179.899487 0.646073 Z M 328.052006 0.646073 C 351.549762 0.646073 370.381297 14.811387 370.381297 32.393042 C 370.381297 49.974696 351.549762 64.14001 328.052006 64.14001 C 304.637575 64.14001 285.722715 49.974696 285.722715 32.393042 C 285.722715 14.811387 304.637575 0.646073 328.052006 0.646073 Z M 328.052006 0.646073 " transform="matrix(0.0468795,0,0,0.0468795,0,10.079087)"/>
</g>
</svg>
